data/sheikah/3.svg

<!-- Generated by IcoMoon.io -->
<svg version="1.1" xmlns="http://www.w3.org/2000/svg" width="1024" height="1024" viewBox="0 0 1024 1024">
<title></title>
<g id="icomoon-ignore">
</g>
<path d="M870.5 153.5v119.5h-119.5v-119.5h119.5zM273 751v-597.5l-119.5 119.5v478l119.5 119.5h478l119.5-119.5h-597.5zM870.5 452h-298.5v-298.5h-119.5v298.5l119.5 119.5h298.5v-119.5z"></path>
</svg>

<svg xmlns="http://www.w3.org/2000/svg" width="1024" height="1024" viewBox="0 0 1024 1024">
  <title/>
  <path d="M870.5 153.5V273H751V153.5zM273 751V153.5L153.5 273v478L273 870.5h478L870.5 751zm597.5-299H572V153.5H452.5V452L572 571.5h298.5z"/>
</svg>
